lib/brands/icons/amwell.svg

<svg xmlns="http://www.w3.org/2000/svg" fill="none" aria-hidden="true" viewBox="0 0 48 48"><g id="amwell-Icon"><g id="Group"><path id="Fill-13" fill="url(#paint0_linear_94_17135)" fill-rule="evenodd" d="M24.0442 40.9699C23.6267 40.9699 23.2093 40.8119 22.8889 40.496L18.2622 35.9334C17.615 35.2951 17.6074 34.2523 18.2452 33.6048C18.8836 32.9567 19.9249 32.9505 20.5726 33.5878L24.0483 37.0152L36.3792 24.9427C39.5149 21.5849 39.5073 16.1424 36.3571 12.7946C35.0521 11.408 33.4009 10.569 31.5815 10.369C29.2241 10.1086 26.8951 10.984 25.2009 12.7685C24.8902 13.0958 24.459 13.2814 24.0077 13.2814C23.5566 13.2814 23.1252 13.0958 22.8144 12.7685C21.437 11.3173 19.6193 10.4537 17.6971 10.3376C15.4574 10.1996 13.2554 11.098 11.6591 12.7943C9.52067 15.0665 8.75778 18.3931 9.66712 21.4761C9.92449 22.3486 9.4266 23.2643 8.55496 23.5214C7.6835 23.7797 6.76836 23.2813 6.51099 22.4088C5.27105 18.2066 6.32557 13.6579 9.26275 10.5371C11.5297 8.1267 14.6852 6.85268 17.8952 7.0509C20.1226 7.1851 22.2438 8.01064 24.0068 9.40798C26.2636 7.61474 29.0784 6.77941 31.9407 7.09588C34.5114 7.37825 36.9308 8.60022 38.7531 10.5371C43.0823 15.1377 43.0823 22.623 38.7534 27.224C38.7378 27.2401 38.7221 27.2563 38.7061 27.2724L25.1951 40.5001C24.875 40.8132 24.4594 40.9699 24.0442 40.9699Z" clip-rule="evenodd"/><path id="Fill-16" fill="white" fill-rule="evenodd" d="M15.6223 32.4614C15.1554 32.4614 14.689 32.286 14.3291 31.9355L9.98646 27.7003C9.25366 26.9854 9.23844 25.8116 9.95257 25.0786C10.6672 24.3454 11.8405 24.3307 12.5729 25.0447L15.6188 28.0155L26.1537 17.6876C26.8843 16.9706 28.0576 16.9832 28.7735 17.7145C29.4896 18.4453 29.4779 19.6194 28.7469 20.3358L16.919 31.9315C16.559 32.2848 16.0905 32.4614 15.6223 32.4614Z" clip-rule="evenodd"/></g></g><defs><linearGradient id="paint0_linear_94_17135" x1="24" x2="24" y1="40.5108" y2="7.03015" gradientUnits="userSpaceOnUse"><stop stop-color="#EF9C23"/><stop offset="0.282808" stop-color="#F3AD30"/><stop offset="0.511493" stop-color="#F5B838"/><stop offset="1" stop-color="#FCD54E"/></linearGradient></defs></svg>

<svg xmlns="http://www.w3.org/2000/svg" fill="none" aria-hidden="true" viewBox="0 0 48 48"><path fill="url(#a)" fill-rule="evenodd" d="M24.044 40.97a1.64 1.64 0 0 1-1.155-.474l-4.627-4.563a1.646 1.646 0 1 1 2.31-2.346l3.476 3.428L36.38 24.943c3.136-3.358 3.128-8.8-.022-12.148-1.305-1.387-2.956-2.226-4.776-2.426-2.357-.26-4.686.615-6.38 2.4a1.645 1.645 0 0 1-2.387 0c-1.377-1.452-3.195-2.315-5.117-2.431-2.24-.138-4.442.76-6.038 2.456-2.138 2.272-2.901 5.6-1.992 8.682a1.646 1.646 0 1 1-3.156.933c-1.24-4.202-.185-8.751 2.752-11.872 2.267-2.41 5.422-3.684 8.632-3.486 2.228.134 4.349.96 6.112 2.357 2.257-1.793 5.071-2.629 7.934-2.312 2.57.282 4.99 1.504 6.812 3.441 4.33 4.6 4.33 12.086 0 16.687a5.336 5.336 0 0 1-.047.048L25.196 40.5c-.321.313-.737.47-1.152.47Z" clip-rule="evenodd"/><path fill="#fff" fill-rule="evenodd" d="M15.622 32.461c-.467 0-.933-.175-1.293-.525L9.986 27.7a1.853 1.853 0 1 1 2.586-2.656l3.047 2.971 10.535-10.327a1.854 1.854 0 0 1 2.593 2.648L16.919 31.932c-.36.353-.829.53-1.297.53Z" clip-rule="evenodd"/><defs><linearGradient id="a" x1="24" x2="24" y1="40.511" y2="7.03" gradientUnits="userSpaceOnUse"><stop stop-color="#EF9C23"/><stop offset=".283" stop-color="#F3AD30"/><stop offset=".511" stop-color="#F5B838"/><stop offset="1" stop-color="#FCD54E"/></linearGradient></defs></svg>
